src/components/Home/Core/assets/core-adam.svg

<svg width="82" height="77" viewBox="0 0 82 77" fill="none" xmlns="http://www.w3.org/2000/svg">
<path d="M70.2985 51.3962H11.4219V4.47348C11.4219 2.0068 13.4331 0 15.9053 0H65.8163C68.2884 0 70.2997 2.0068 70.2997 4.47348V51.3962H70.2985Z" fill="white"/>
<path d="M68.7809 2.17578H12.9375V9.59674H68.7809V2.17578Z" fill="#B69538"/>
<path d="M70.2985 51.3962H11.4219V4.47348C11.4219 2.0068 13.4331 0 15.9053 0H65.8163C68.2884 0 70.2997 2.0068 70.2997 4.47348V51.3962H70.2985ZM14.2153 48.609H67.5051V4.47348C67.5051 3.54441 66.7474 2.78721 65.8151 2.78721H15.9041C14.9718 2.78721 14.2141 3.54325 14.2141 4.47348V48.609H14.2153Z" fill="#4C4C4C"/>
<path d="M68.7809 9.07129H12.9375V11.8585H68.7809V9.07129Z" fill="#4C4C4C"/>
<path d="M40.861 8.08988C41.9924 8.08988 42.9095 7.17476 42.9095 6.04591C42.9095 4.91706 41.9924 4.00195 40.861 4.00195C39.7296 4.00195 38.8125 4.91706 38.8125 6.04591C38.8125 7.17476 39.7296 8.08988 40.861 8.08988Z" fill="#4C4C4C"/>
<path d="M71.5078 58.5024H10.2125C4.9889 58.5024 0.738281 54.2612 0.738281 49.0491V45.37C0.738281 43.0485 2.63081 41.1602 4.95747 41.1602H32.441L33.9971 43.2087H47.7243L49.2805 41.1602H76.764C79.0907 41.1602 80.9832 43.0485 80.9832 45.37V49.0491C80.9809 54.2612 76.7314 58.5024 71.5078 58.5024Z" fill="white"/>
<path d="M32.2195 25.1025H19.4258V27.6575H32.2195V25.1025Z" fill="#4C4C4C"/>
<path d="M23.2109 20.428L21.1133 21.8936L28.4518 32.351L30.5494 30.8855L23.2109 20.428Z" fill="#4C4C4C"/>
<path d="M28.4362 20.4266L21.0977 30.8828L23.1951 32.3483L30.5336 21.8922L28.4362 20.4266Z" fill="#4C4C4C"/>
<path d="M48.2625 25.1025H35.4688V27.6575H48.2625V25.1025Z" fill="#4C4C4C"/>
<path d="M39.2539 20.4261L37.1562 21.8916L44.4947 32.3491L46.5924 30.8835L39.2539 20.4261Z" fill="#4C4C4C"/>
<path d="M44.4791 20.4266L37.1406 30.8828L39.238 32.3483L46.5765 21.8922L44.4791 20.4266Z" fill="#4C4C4C"/>
<path d="M71.5065 55.8312H10.2113C6.46352 55.8312 3.41406 52.7885 3.41406 49.0489V45.3698C3.41406 44.5209 4.10543 43.8311 4.95625 43.8311H31.1094L32.6656 45.8796H49.0523L50.6085 43.8311H76.7616C77.6124 43.8311 78.3038 44.5209 78.3038 45.3698V49.0489C78.3026 52.7885 75.2543 55.8312 71.5065 55.8312Z" fill="#B69538"/>
<path d="M71.5065 55.8312H10.2113C6.46352 55.8312 3.41406 52.7885 3.41406 49.0489V45.3698C3.41406 44.5209 4.10543 43.8311 4.95625 43.8311H31.1094L32.6656 45.8796H49.0523L50.6085 43.8311H76.7616C77.6124 43.8311 78.3038 44.5209 78.3038 45.3698V49.0489C78.3026 52.7885 75.2543 55.8312 71.5065 55.8312ZM6.20746 46.6183V49.0489C6.20746 51.252 8.00338 53.0439 10.2113 53.0439H71.5065C73.7145 53.0439 75.5104 51.252 75.5104 49.0489V46.6183H51.9958L50.4397 48.6669H31.277L29.7209 46.6183H6.20746Z" fill="#4C4C4C"/>
<path d="M78.8549 75.4294H52.7145V65.6533C50.1295 63.4339 47.8447 60.8906 45.9138 58.0836L38.2203 46.8988C36.3022 44.3287 36.5711 40.7367 38.8733 38.4791L38.9 38.4535C41.7167 35.6919 46.0639 35.2912 49.3217 37.3897V23.4061C49.3217 19.1091 52.8251 15.6123 57.1328 15.6123C61.4485 15.6123 64.9531 19.1079 64.9531 23.4061V35.4619L74.4576 37.3015C78.6826 38.1191 81.7484 41.8295 81.7484 46.123V55.8225C81.7484 59.0232 80.7265 62.1588 78.856 64.7451V75.4294H78.8549Z" fill="white"/>
<path d="M76.1801 72.7583H55.3938V64.406L55.0015 64.082C52.3699 61.9091 50.056 59.3832 48.1228 56.5728L40.3967 45.3403C39.2468 43.8363 39.3957 41.7146 40.7517 40.3848L40.7785 40.3581C42.8305 38.3467 46.0754 38.176 48.3276 39.9598L52.0009 42.8689V23.4049C52.0009 20.5805 54.3043 18.2822 57.135 18.2822C59.9749 18.2822 62.2783 20.5805 62.2783 23.4049V37.6638L73.95 39.9238C76.9192 40.4987 79.0736 43.1059 79.0736 46.123V55.8225C79.0736 58.7073 78.0668 61.5282 76.2406 63.7638L76.1824 63.8358V72.7583H76.1801Z" fill="white"/>
<path d="M76.1801 72.7583H55.3938V64.406L55.0015 64.082C52.3699 61.9091 50.056 59.3832 48.1228 56.5728L40.3967 45.3403C39.2468 43.8363 39.3957 41.7146 40.7517 40.3848L40.7785 40.3581C42.8305 38.3467 46.0754 38.176 48.3276 39.9598L52.0009 42.8689V23.4049C52.0009 20.5805 54.3043 18.2822 57.135 18.2822C59.9749 18.2822 62.2783 20.5805 62.2783 23.4049V37.6638L73.95 39.9238C76.9192 40.4987 79.0736 43.1059 79.0736 46.123V55.8225C79.0736 58.7073 78.0668 61.5282 76.2406 63.7638L76.1824 63.8358V72.7583H76.1801ZM58.1871 69.9711H73.3867V62.844L74.0734 62.0032C75.4957 60.2635 76.2779 58.0686 76.2779 55.8225V46.123C76.2779 44.4368 75.0744 42.9804 73.4158 42.6599L59.4837 39.9621V23.4049C59.4837 22.117 58.4339 21.0694 57.1431 21.0694C55.843 21.0694 54.7932 22.117 54.7932 23.4049V48.6396L46.5899 42.1419C45.44 41.2315 43.7825 41.3186 42.7362 42.3452L42.7094 42.3719C42.3567 42.718 42.3207 43.2708 42.6256 43.6598L42.678 43.7307L50.4262 54.9945C52.2128 57.5912 54.3509 59.9255 56.7823 61.9335L58.1871 63.0937V69.9711Z" fill="#4C4C4C"/>
<path d="M77.6721 66.0088H53.8945V75.6061H77.6721V66.0088Z" fill="#B69538"/>
<path d="M79.071 76.9998H52.5V64.6152H79.071V76.9998ZM55.2934 74.2126H76.2776V67.4025H55.2934V74.2126Z" fill="#4C4C4C"/>
</svg>

<svg width="82" height="77" fill="none" xmlns="http://www.w3.org/2000/svg"><path d="M70.299 51.396H11.422V4.473A4.483 4.483 0 0 1 15.905 0h49.911A4.484 4.484 0 0 1 70.3 4.473v46.923h-.001z" fill="#fff"/><path d="M68.78 2.176H12.938v7.42h55.844v-7.42z" fill="#B69538"/><path d="M70.299 51.396H11.422V4.473A4.483 4.483 0 0 1 15.905 0h49.911A4.484 4.484 0 0 1 70.3 4.473v46.923h-.001zM14.215 48.61h53.29V4.473a1.69 1.69 0 0 0-1.69-1.686h-49.91a1.69 1.69 0 0 0-1.69 1.686V48.61z" fill="#4C4C4C"/><path d="M68.78 9.071H12.938v2.787h55.844V9.072zM40.862 8.09a2.046 2.046 0 0 0 2.049-2.044 2.046 2.046 0 0 0-2.049-2.044 2.046 2.046 0 0 0-2.048 2.044c0 1.129.917 2.044 2.048 2.044z" fill="#4C4C4C"/><path d="M71.508 58.502H10.213c-5.224 0-9.475-4.24-9.475-9.453V45.37a4.219 4.219 0 0 1 4.22-4.21H32.44l1.556 2.049h13.727l1.557-2.049h27.483a4.219 4.219 0 0 1 4.22 4.21v3.68c-.003 5.211-4.253 9.452-9.476 9.452z" fill="#fff"/><path d="M32.22 25.102H19.425v2.555h12.793v-2.555z" fill="#4C4C4C"/><path d="M23.21 20.428l-2.097 1.466 7.339 10.457 2.097-1.465-7.338-10.458z" fill="#4C4C4C"/><path d="M28.436 20.427l-7.338 10.456 2.097 1.465 7.339-10.456-2.098-1.465zm19.827 4.675H35.469v2.555h12.794v-2.555z" fill="#4C4C4C"/><path d="M39.254 20.426l-2.098 1.466 7.339 10.457 2.097-1.465-7.338-10.458z" fill="#4C4C4C"/><path d="M44.48 20.427l-7.34 10.456 2.098 1.465 7.339-10.456-2.098-1.465z" fill="#4C4C4C"/><path d="M71.507 55.831H10.21c-3.747 0-6.797-3.043-6.797-6.782v-3.68c0-.848.691-1.538 1.542-1.538H31.11l1.557 2.049h16.386l1.556-2.049h26.154c.85 0 1.542.69 1.542 1.539v3.679c-.001 3.74-3.05 6.782-6.797 6.782z" fill="#B69538"/><path d="M71.507 55.831H10.21c-3.747 0-6.797-3.043-6.797-6.782v-3.68c0-.848.691-1.538 1.542-1.538H31.11l1.557 2.049h16.386l1.556-2.049h26.154c.85 0 1.542.69 1.542 1.539v3.679c-.001 3.74-3.05 6.782-6.797 6.782zm-65.3-9.213v2.43a4.004 4.004 0 0 0 4.004 3.996h61.296a4.004 4.004 0 0 0 4.003-3.995v-2.43H51.996l-1.556 2.048H31.277l-1.556-2.049H6.207z" fill="#4C4C4C"/><path d="M78.855 75.43h-26.14v-9.777a39.42 39.42 0 0 1-6.801-7.57L38.22 46.9a6.411 6.411 0 0 1 .653-8.42l.027-.026a8.411 8.411 0 0 1 10.422-1.063V23.406c0-4.297 3.503-7.794 7.81-7.794 4.317 0 7.821 3.496 7.821 7.794v12.056l9.505 1.84c4.225.817 7.29 4.528 7.29 8.821v9.7c0 3.2-1.022 6.336-2.892 8.922V75.43h-.001z" fill="#fff"/><path d="M76.18 72.758H55.394v-8.352l-.392-.324a36.734 36.734 0 0 1-6.88-7.51L40.398 45.34a3.746 3.746 0 0 1 .355-4.955l.026-.027a5.725 5.725 0 0 1 7.55-.398L52 42.869V23.405c0-2.825 2.303-5.123 5.134-5.123 2.84 0 5.143 2.299 5.143 5.123v14.259l11.672 2.26a6.329 6.329 0 0 1 5.124 6.199v9.7a12.59 12.59 0 0 1-2.833 7.94l-.059.073v8.922h-.002z" fill="#fff"/><path d="M76.18 72.758H55.394v-8.352l-.392-.324a36.734 36.734 0 0 1-6.88-7.51L40.398 45.34a3.746 3.746 0 0 1 .355-4.955l.026-.027a5.725 5.725 0 0 1 7.55-.398L52 42.869V23.405c0-2.825 2.303-5.123 5.134-5.123 2.84 0 5.143 2.299 5.143 5.123v14.259l11.672 2.26a6.329 6.329 0 0 1 5.124 6.199v9.7a12.59 12.59 0 0 1-2.833 7.94l-.059.073v8.922h-.002zm-17.993-2.787h15.2v-7.127l.686-.84a9.79 9.79 0 0 0 2.205-6.181v-9.7a3.534 3.534 0 0 0-2.862-3.463l-13.932-2.698V23.405a2.34 2.34 0 0 0-2.34-2.336c-1.301 0-2.35 1.048-2.35 2.336V48.64l-8.204-6.498a2.923 2.923 0 0 0-3.854.203l-.027.027a.966.966 0 0 0-.083 1.288l.052.07 7.748 11.265a33.97 33.97 0 0 0 6.356 6.939l1.405 1.16v6.877z" fill="#4C4C4C"/><path d="M77.672 66.009H53.895v9.597h23.777V66.01z" fill="#B69538"/><path d="M79.071 77H52.5V64.615h26.571V77zm-23.778-2.787h20.985v-6.81H55.293v6.81z" fill="#4C4C4C"/></svg>
